X:63
T: ICH UND MEIN JUNGES WEIB
N: F0160
O: Europa, Mitteleuropa, Deutschland
R: Bettler - Lied
M: 3/8
L: 1/16
K: A
 | EAA2E2 | EccEE2 |
EAA2E2 | EcA4 |
EAA2E2 | EccEE2 |
EAA2E2 | EcA4 |
e2EEE2 | E2F^DE2 |
e2E2E2 | E2F^DE2 |
A2E2B2E2 | c2d2B2 | A4z2

@@@ Tune index: 5494
